static/img/kroki/1b5e3cdf04e337a7e6d15bb8853b65eb.svg

<?xml version="1.0" encoding="us-ascii" standalone="no"?><svg xmlns="http://www.w3.org/2000/svg" xmlns:xlink="http://www.w3.org/1999/xlink" contentStyleType="text/css" height="573px" preserveAspectRatio="none" style="width:332px;height:573px;" version="1.1" viewBox="0 0 332 573" width="332px" zoomAndPan="magnify"><defs/><g><!--class aws_region--><g id="elem_aws_region"><rect codeLine="23" fill="#3D176E" height="39.7891" id="aws_region" rx="2.5" ry="2.5" style="stroke:#000D19;stroke-width:0.5;" width="137" x="66" y="528.16"/><ellipse cx="81" cy="548.0545" fill="#ADD1B2" rx="11" ry="11" style="stroke:#181818;stroke-width:1.0;"/><path d="M83.9688,553.6952 Q83.3906,553.992 82.75,554.1327 Q82.1094,554.2889 81.4063,554.2889 Q78.9063,554.2889 77.5781,552.6483 Q76.2656,550.992 76.2656,547.867 Q76.2656,544.742 77.5781,543.0858 Q78.9063,541.4295 81.4063,541.4295 Q82.1094,541.4295 82.75,541.5858 Q83.4063,541.742 83.9688,542.0389 L83.9688,544.7577 Q83.3438,544.1795 82.75,543.9139 Q82.1563,543.6327 81.5313,543.6327 Q80.1875,543.6327 79.5,544.7108 Q78.8125,545.7733 78.8125,547.867 Q78.8125,549.9608 79.5,551.0389 Q80.1875,552.1014 81.5313,552.1014 Q82.1563,552.1014 82.75,551.8358 Q83.3438,551.5545 83.9688,550.9764 L83.9688,553.6952 Z " fill="#000000"/><text fill="#D9B8FF" font-family="Helvetica" font-size="17" lengthAdjust="spacing" textLength="95" x="100" y="553.9398">aws_region</text></g><!--class aws_resource--><g id="elem_aws_resource"><rect codeLine="26" fill="#3D176E" height="39.7891" id="aws_resource" rx="2.5" ry="2.5" style="stroke:#000D19;stroke-width:0.5;" width="155" x="7" y="267.58"/><ellipse cx="22" cy="287.4745" fill="#ADD1B2" rx="11" ry="11" style="stroke:#181818;stroke-width:1.0;"/><path d="M24.9688,293.1152 Q24.3906,293.412 23.75,293.5527 Q23.1094,293.7089 22.4063,293.7089 Q19.9063,293.7089 18.5781,292.0683 Q17.2656,290.412 17.2656,287.287 Q17.2656,284.162 18.5781,282.5058 Q19.9063,280.8495 22.4063,280.8495 Q23.1094,280.8495 23.75,281.0058 Q24.4063,281.162 24.9688,281.4589 L24.9688,284.1777 Q24.3438,283.5995 23.75,283.3339 Q23.1563,283.0527 22.5313,283.0527 Q21.1875,283.0527 20.5,284.1308 Q19.8125,285.1933 19.8125,287.287 Q19.8125,289.3808 20.5,290.4589 Q21.1875,291.5214 22.5313,291.5214 Q23.1563,291.5214 23.75,291.2558 Q24.3438,290.9745 24.9688,290.3964 L24.9688,293.1152 Z " fill="#000000"/><text fill="#D9B8FF" font-family="Helvetica" font-size="17" lengthAdjust="spacing" textLength="113" x="41" y="293.3598">aws_resource</text></g><!--class phantom_resource--><g id="elem_phantom_resource"><rect codeLine="29" fill="#3D176E" height="39.7891" id="phantom_resource" rx="2.5" ry="2.5" style="stroke:#000D19;stroke-width:0.5;" width="198" x="127.5" y="167.79"/><ellipse cx="142.5" cy="187.6845" fill="#ADD1B2" rx="11" ry="11" style="stroke:#181818;stroke-width:1.0;"/><path d="M145.4688,193.3252 Q144.8906,193.622 144.25,193.7627 Q143.6094,193.9189 142.9063,193.9189 Q140.4063,193.9189 139.0781,192.2783 Q137.7656,190.622 137.7656,187.497 Q137.7656,184.372 139.0781,182.7158 Q140.4063,181.0595 142.9063,181.0595 Q143.6094,181.0595 144.25,181.2158 Q144.9063,181.372 145.4688,181.6689 L145.4688,184.3877 Q144.8438,183.8095 144.25,183.5439 Q143.6563,183.2627 143.0313,183.2627 Q141.6875,183.2627 141,184.3408 Q140.3125,185.4033 140.3125,187.497 Q140.3125,189.5908 141,190.6689 Q141.6875,191.7314 143.0313,191.7314 Q143.6563,191.7314 144.25,191.4658 Q144.8438,191.1845 145.4688,190.6064 L145.4688,193.3252 Z " fill="#000000"/><text fill="#D9B8FF" font-family="Helvetica" font-size="17" lengthAdjust="spacing" textLength="156" x="161.5" y="193.5698">phantom_resource</text></g><!--class region--><g id="elem_region"><rect codeLine="32" fill="#3D176E" height="39.7891" id="region" rx="2.5" ry="2.5" style="stroke:#000D19;stroke-width:0.5;" width="95" x="162" y="367.37"/><ellipse cx="177" cy="387.2645" fill="#ADD1B2" rx="11" ry="11" style="stroke:#181818;stroke-width:1.0;"/><path d="M179.9688,392.9052 Q179.3906,393.202 178.75,393.3427 Q178.1094,393.4989 177.4063,393.4989 Q174.9063,393.4989 173.5781,391.8583 Q172.2656,390.202 172.2656,387.077 Q172.2656,383.952 173.5781,382.2958 Q174.9063,380.6395 177.4063,380.6395 Q178.1094,380.6395 178.75,380.7958 Q179.4063,380.952 179.9688,381.2489 L179.9688,383.9677 Q179.3438,383.3895 178.75,383.1239 Q178.1563,382.8427 177.5313,382.8427 Q176.1875,382.8427 175.5,383.9208 Q174.8125,384.9833 174.8125,387.077 Q174.8125,389.1708 175.5,390.2489 Q176.1875,391.3114 177.5313,391.3114 Q178.1563,391.3114 178.75,391.0458 Q179.3438,390.7645 179.9688,390.1864 L179.9688,392.9052 Z " fill="#000000"/><text fill="#D9B8FF" font-family="Helvetica" font-size="17" lengthAdjust="spacing" textLength="53" x="196" y="393.1498">region</text></g><!--class resource--><g id="elem_resource"><rect codeLine="35" fill="#3D176E" height="39.7891" id="resource" rx="2.5" ry="2.5" style="stroke:#000D19;stroke-width:0.5;" width="113" x="53" y="7"/><ellipse cx="68" cy="26.8945" fill="#ADD1B2" rx="11" ry="11" style="stroke:#181818;stroke-width:1.0;"/><path d="M70.9688,32.5352 Q70.3906,32.832 69.75,32.9727 Q69.1094,33.1289 68.4063,33.1289 Q65.9063,33.1289 64.5781,31.4883 Q63.2656,29.832 63.2656,26.707 Q63.2656,23.582 64.5781,21.9258 Q65.9063,20.2695 68.4063,20.2695 Q69.1094,20.2695 69.75,20.4258 Q70.4063,20.582 70.9688,20.8789 L70.9688,23.5977 Q70.3438,23.0195 69.75,22.7539 Q69.1563,22.4727 68.5313,22.4727 Q67.1875,22.4727 66.5,23.5508 Q65.8125,24.6133 65.8125,26.707 Q65.8125,28.8008 66.5,29.8789 Q67.1875,30.9414 68.5313,30.9414 Q69.1563,30.9414 69.75,30.6758 Q70.3438,30.3945 70.9688,29.8164 L70.9688,32.5352 Z " fill="#000000"/><text fill="#D9B8FF" font-family="Helvetica" font-size="17" lengthAdjust="spacing" textLength="71" x="87" y="32.7798">resource</text></g><!--reverse link aws_resource to aws_region--><g id="link_aws_resource_aws_region"><path codeLine="38" d="M91.596,325.1629 C100.816,372.8629 121.45,479.56 130.75,527.66 " fill="none" id="aws_resource-backto-aws_region" style="stroke:#FFAF37;stroke-width:2.0;"/><polygon fill="none" points="88.18,307.49,85.7051,326.3016,97.487,324.0242,88.18,307.49" style="stroke:#FFAF37;stroke-width:2.0;"/></g><!--reverse link region to aws_region--><g id="link_region_aws_region"><path codeLine="39" d="M192.7649,423.6969 C178.3549,454.2169 158.01,497.27 143.58,527.83 " fill="none" id="region-backto-aws_region" style="stroke:#FFAF37;stroke-width:2.0;"/><polygon fill="none" points="200.45,407.42,187.3392,421.1352,198.1905,426.2586,200.45,407.42" style="stroke:#FFAF37;stroke-width:2.0;"/></g><!--reverse link resource to aws_resource--><g id="link_resource_aws_resource"><path codeLine="40" d="M105.9288,64.8266 C101.3188,112.5366 91.03,218.98 86.37,267.08 " fill="none" id="resource-backto-aws_resource" style="stroke:#FFAF37;stroke-width:2.0;"/><polygon fill="none" points="107.66,46.91,99.9566,64.2495,111.901,65.4036,107.66,46.91" style="stroke:#FFAF37;stroke-width:2.0;"/></g><!--reverse link resource to phantom_resource--><g id="link_resource_phantom_resource"><path codeLine="41" d="M134.2881,61.5406 C156.7781,92.0606 189.82,136.9 212.34,167.47 " fill="none" id="resource-backto-phantom_resource" style="stroke:#FFAF37;stroke-width:2.0;"/><polygon fill="none" points="123.61,47.05,129.4579,65.1,139.1183,57.9813,123.61,47.05" style="stroke:#FFAF37;stroke-width:2.0;"/></g><!--reverse link phantom_resource to region--><g id="link_phantom_resource_region"><path codeLine="42" d="M223.2969,225.9237 C220.0469,263.6937 214.42,329.05 211.17,366.88 " fill="none" id="phantom_resource-backto-region" style="stroke:#FFAF37;stroke-width:2.0;"/><polygon fill="none" points="224.84,207.99,217.3189,225.4093,229.2748,226.4381,224.84,207.99" style="stroke:#FFAF37;stroke-width:2.0;"/></g><!--SRC=[XP3DJiCm48JlVWfBFLTggQ2DnALKGd2f4EMEDl4wiHhRqTgbAZ_l3YK1ENRQNcU-dPtTIWdag1j_u1frZkIOsohJ087cIoAxNzdQ4Xz92N8sZyrxQ_n5O0qQ-GFMR-XL0J7nKgbYQz0vVXLOTr1iIx8x8zfuJs3SZuN61zIg1kUMtfFATnw3CYBB5rB6P1mwcedf_0OJp990wf39P2AcMOnSN7NsxdzYezwHJyEdhQt7f6QoufSws_9812MJG__yansVG0XbIduTQCzj9p98FNrJWR3x8osXTk4Qvv7G-aE3g-Ggp1P2pWVXnrCmAuwlux1thuIbieP_CFRLKvtTKO6XtbHWlDM3NfhIftgPjv_ZyJXOphhf0NrWefLYBox7ahOjroL_0m00]--></g></svg>

<svg xmlns="http://www.w3.org/2000/svg" width="332" height="573" viewBox="0 0 332 573"><rect width="137" height="39.789" x="66" y="528.16" fill="#3D176E" rx="2.5" ry="2.5" style="stroke:#000d19;stroke-width:.5"/><circle cx="81" cy="548.054" r="11" fill="#ADD1B2" style="stroke:#181818;stroke-width:1"/><path d="M83.969 553.695q-.578.297-1.219.438-.64.156-1.344.156-2.5 0-3.828-1.64-1.312-1.657-1.312-4.782t1.312-4.781q1.328-1.657 3.828-1.657.703 0 1.344.157.656.156 1.219.453v2.719q-.625-.579-1.219-.844-.594-.281-1.219-.281-1.344 0-2.031 1.078-.687 1.062-.687 3.156t.687 3.172q.688 1.062 2.031 1.062.625 0 1.219-.265.594-.282 1.219-.86z"/><text x="100" y="553.94" fill="#D9B8FF" font-family="Helvetica" font-size="17" textLength="95">aws_region</text><rect width="155" height="39.789" x="7" y="267.58" fill="#3D176E" rx="2.5" ry="2.5" style="stroke:#000d19;stroke-width:.5"/><circle cx="22" cy="287.474" r="11" fill="#ADD1B2" style="stroke:#181818;stroke-width:1"/><path d="M24.969 293.115q-.578.297-1.219.438-.64.156-1.344.156-2.5 0-3.828-1.64-1.312-1.657-1.312-4.782t1.312-4.781q1.328-1.656 3.828-1.656.703 0 1.344.156.656.156 1.219.453v2.719q-.625-.579-1.219-.844-.594-.281-1.219-.281-1.343 0-2.031 1.078-.687 1.062-.687 3.156t.687 3.172q.688 1.062 2.031 1.062.625 0 1.219-.265.594-.281 1.219-.86z"/><text x="41" y="293.36" fill="#D9B8FF" font-family="Helvetica" font-size="17" textLength="113">aws_resource</text><rect width="198" height="39.789" x="127.5" y="167.79" fill="#3D176E" rx="2.5" ry="2.5" style="stroke:#000d19;stroke-width:.5"/><circle cx="142.5" cy="187.685" r="11" fill="#ADD1B2" style="stroke:#181818;stroke-width:1"/><path d="M145.469 193.325q-.578.297-1.219.438-.64.156-1.344.156-2.5 0-3.828-1.64-1.312-1.657-1.312-4.782t1.312-4.781q1.328-1.656 3.828-1.656.703 0 1.344.156.656.156 1.219.453v2.719q-.625-.578-1.219-.844-.594-.281-1.219-.281-1.344 0-2.031 1.078-.687 1.062-.687 3.156t.687 3.172q.688 1.062 2.031 1.062.625 0 1.219-.265.594-.281 1.219-.86z"/><text x="161.5" y="193.57" fill="#D9B8FF" font-family="Helvetica" font-size="17" textLength="156">phantom_resource</text><rect width="95" height="39.789" x="162" y="367.37" fill="#3D176E" rx="2.5" ry="2.5" style="stroke:#000d19;stroke-width:.5"/><circle cx="177" cy="387.264" r="11" fill="#ADD1B2" style="stroke:#181818;stroke-width:1"/><path d="M179.969 392.905q-.578.297-1.219.438-.64.156-1.344.156-2.5 0-3.828-1.64-1.312-1.657-1.312-4.782t1.312-4.781q1.328-1.656 3.828-1.656.703 0 1.344.156.656.156 1.219.453v2.719q-.625-.579-1.219-.844-.594-.281-1.219-.281-1.344 0-2.031 1.078-.687 1.062-.687 3.156t.687 3.172q.688 1.062 2.031 1.062.625 0 1.219-.265.594-.281 1.219-.86z"/><text x="196" y="393.15" fill="#D9B8FF" font-family="Helvetica" font-size="17" textLength="53">region</text><rect width="113" height="39.789" x="53" y="7" fill="#3D176E" rx="2.5" ry="2.5" style="stroke:#000d19;stroke-width:.5"/><circle cx="68" cy="26.895" r="11" fill="#ADD1B2" style="stroke:#181818;stroke-width:1"/><path d="M70.969 32.535q-.578.297-1.219.438-.64.156-1.344.156-2.5 0-3.828-1.64-1.312-1.657-1.312-4.782t1.312-4.781q1.328-1.656 3.828-1.656.703 0 1.344.156.656.156 1.219.453v2.719q-.625-.578-1.219-.844-.594-.281-1.219-.281-1.344 0-2.031 1.078-.687 1.062-.687 3.156t.687 3.172q.688 1.062 2.031 1.062.625 0 1.219-.265.594-.281 1.219-.86z"/><text x="87" y="32.78" fill="#D9B8FF" font-family="Helvetica" font-size="17" textLength="71">resource</text><g fill="none"><path d="M91.596 325.163c9.22 47.7 29.854 154.397 39.154 202.497" style="stroke:#ffaf37;stroke-width:2"/><path d="m88.18 307.49-2.475 18.812 11.782-2.278z" style="stroke:#ffaf37;stroke-width:2"/></g><g fill="none"><path d="M192.765 423.697c-14.41 30.52-34.755 73.573-49.185 104.133" style="stroke:#ffaf37;stroke-width:2"/><path d="m200.45 407.42-13.11 13.715 10.85 5.124z" style="stroke:#ffaf37;stroke-width:2"/></g><g fill="none"><path d="M105.929 64.827c-4.61 47.71-14.899 154.153-19.559 202.253" style="stroke:#ffaf37;stroke-width:2"/><path d="m107.66 46.91-7.703 17.34 11.944 1.154z" style="stroke:#ffaf37;stroke-width:2"/></g><g fill="none"><path d="M134.288 61.54c22.49 30.52 55.532 75.36 78.052 105.93" style="stroke:#ffaf37;stroke-width:2"/><path d="m123.61 47.05 5.848 18.05 9.66-7.119z" style="stroke:#ffaf37;stroke-width:2"/></g><g fill="none"><path d="M223.297 225.924c-3.25 37.77-8.877 103.126-12.127 140.956" style="stroke:#ffaf37;stroke-width:2"/><path d="m224.84 207.99-7.521 17.42 11.956 1.028z" style="stroke:#ffaf37;stroke-width:2"/></g></svg>
